assets/instagram_icon.svg

<svg width="24" height="24" viewBox="0 0 24 24" class="socialIcon-32i0_n"><g fill="currentColor"><path fill-rule="evenodd" clip-rule="evenodd" d="M11.9969 2.00632C9.28187 2.00632 8.94143 2.01783 7.87516 2.06648C6.81111 2.11501 6.0844 2.28402 5.44853 2.53116C4.79115 2.78659 4.23365 3.12842 3.67786 3.68417C3.1221 4.23997 2.78028 4.79747 2.52484 5.45485C2.2777 6.09072 2.10869 6.81743 2.06016 7.88148C2.01151 8.94775 2 9.28818 2 12.0032C2 14.7181 2.01151 15.0586 2.06016 16.1249C2.10869 17.1889 2.2777 17.9156 2.52484 18.5515C2.78028 19.2089 3.1221 19.7664 3.67786 20.3222C4.23365 20.8779 4.79115 21.2197 5.44853 21.4752C6.0844 21.7223 6.81111 21.8913 7.87516 21.9398C8.94143 21.9885 9.28187 22 11.9969 22C14.7118 22 15.0523 21.9885 16.1185 21.9398C17.1826 21.8913 17.9093 21.7223 18.5452 21.4752C19.2025 21.2197 19.76 20.8779 20.3158 20.3222C20.8716 19.7664 21.2134 19.2089 21.4689 18.5515C21.716 17.9156 21.885 17.1889 21.9335 16.1249C21.9822 15.0586 21.9937 14.7181 21.9937 12.0032C21.9937 9.28818 21.9822 8.94775 21.9335 7.88148C21.885 6.81743 21.716 6.09072 21.4689 5.45485C21.2134 4.79747 20.8716 4.23997 20.3158 3.68417C19.76 3.12842 19.2025 2.78659 18.5452 2.53116C17.9093 2.28402 17.1826 2.11501 16.1185 2.06648C15.0523 2.01783 14.7118 2.00632 11.9969 2.00632ZM11.9969 3.80755C14.6661 3.80755 14.9823 3.81775 16.0364 3.86584C17.0111 3.91029 17.5404 4.07314 17.8927 4.21005C18.3593 4.3914 18.6923 4.60802 19.0421 4.95786C19.392 5.30767 19.6086 5.64068 19.79 6.10731C19.9269 6.45957 20.0897 6.9889 20.1342 7.96358C20.1823 9.01771 20.1925 9.3339 20.1925 12.0032C20.1925 14.6724 20.1823 14.9886 20.1342 16.0427C20.0897 17.0174 19.9269 17.5468 19.79 17.899C19.6086 18.3656 19.392 18.6987 19.0421 19.0485C18.6923 19.3983 18.3593 19.6149 17.8927 19.7963C17.5404 19.9332 17.0111 20.096 16.0364 20.1405C14.9825 20.1886 14.6663 20.1988 11.9969 20.1988C9.32738 20.1988 9.01127 20.1886 7.95726 20.1405C6.98258 20.096 6.45325 19.9332 6.10099 19.7963C5.63437 19.6149 5.30135 19.3983 4.95155 19.0485C4.60175 18.6987 4.38508 18.3656 4.20373 17.899C4.06683 17.5468 3.90397 17.0174 3.85952 16.0427C3.81143 14.9886 3.80123 14.6724 3.80123 12.0032C3.80123 9.3339 3.81143 9.01771 3.85952 7.96358C3.90397 6.9889 4.06683 6.45957 4.20373 6.10731C4.38508 5.64068 4.60171 5.30767 4.95155 4.95786C5.30135 4.60802 5.63437 4.3914 6.10099 4.21005C6.45325 4.07314 6.98258 3.91029 7.95726 3.86584C9.01139 3.81775 9.32758 3.80755 11.9969 3.80755Z"></path><path fill-rule="evenodd" clip-rule="evenodd" d="M11.9968 15.3355C10.1564 15.3355 8.66451 13.8435 8.66451 12.0032C8.66451 10.1628 10.1564 8.67089 11.9968 8.67089C13.8372 8.67089 15.3291 10.1628 15.3291 12.0032C15.3291 13.8435 13.8372 15.3355 11.9968 15.3355ZM11.9968 6.86966C9.16161 6.86966 6.86328 9.16799 6.86328 12.0032C6.86328 14.8384 9.16161 17.1367 11.9968 17.1367C14.832 17.1367 17.1303 14.8384 17.1303 12.0032C17.1303 9.16799 14.832 6.86966 11.9968 6.86966Z"></path><path fill-rule="evenodd" clip-rule="evenodd" d="M18.5328 6.66684C18.5328 7.32938 17.9957 7.86644 17.3331 7.86644C16.6706 7.86644 16.1335 7.32938 16.1335 6.66684C16.1335 6.0043 16.6706 5.46719 17.3331 5.46719C17.9957 5.46719 18.5328 6.0043 18.5328 6.66684Z"></path></g></svg>

<svg fill="#FFFFFF" width="800px" height="800px" viewBox="0 0 24 24" xmlns="http://www.w3.org/2000/svg" data-name="Layer 1" version="1.1" xmlns:xlink="http://www.w3.org/1999/xlink"><path d="M17.34,5.46h0a1.2,1.2,0,1,0,1.2,1.2A1.2,1.2,0,0,0,17.34,5.46Zm4.6,2.42a7.59,7.59,0,0,0-.46-2.43,4.94,4.94,0,0,0-1.16-1.77,4.7,4.7,0,0,0-1.77-1.15,7.3,7.3,0,0,0-2.43-.47C15.06,2,14.72,2,12,2s-3.06,0-4.12.06a7.3,7.3,0,0,0-2.43.47A4.78,4.78,0,0,0,3.68,3.68,4.7,4.7,0,0,0,2.53,5.45a7.3,7.3,0,0,0-.47,2.43C2,8.94,2,9.28,2,12s0,3.06.06,4.12a7.3,7.3,0,0,0,.47,2.43,4.7,4.7,0,0,0,1.15,1.77,4.78,4.78,0,0,0,1.77,1.15,7.3,7.3,0,0,0,2.43.47C8.94,22,9.28,22,12,22s3.06,0,4.12-.06a7.3,7.3,0,0,0,2.43-.47,4.7,4.7,0,0,0,1.77-1.15,4.85,4.85,0,0,0,1.16-1.77,7.59,7.59,0,0,0,.46-2.43c0-1.06.06-1.4.06-4.12S22,8.94,21.94,7.88ZM20.14,16a5.61,5.61,0,0,1-.34,1.86,3.06,3.06,0,0,1-.75,1.15,3.19,3.19,0,0,1-1.15.75,5.61,5.61,0,0,1-1.86.34c-1,.05-1.37.06-4,.06s-3,0-4-.06A5.73,5.73,0,0,1,6.1,19.8,3.27,3.27,0,0,1,5,19.05a3,3,0,0,1-.74-1.15A5.54,5.54,0,0,1,3.86,16c0-1-.06-1.37-.06-4s0-3,.06-4A5.54,5.54,0,0,1,4.21,6.1,3,3,0,0,1,5,5,3.14,3.14,0,0,1,6.1,4.2,5.73,5.73,0,0,1,8,3.86c1,0,1.37-.06,4-.06s3,0,4,.06a5.61,5.61,0,0,1,1.86.34A3.06,3.06,0,0,1,19.05,5,3.06,3.06,0,0,1,19.8,6.1,5.61,5.61,0,0,1,20.14,8c.05,1,.06,1.37.06,4S20.19,15,20.14,16ZM12,6.87A5.13,5.13,0,1,0,17.14,12,5.12,5.12,0,0,0,12,6.87Zm0,8.46A3.33,3.33,0,1,1,15.33,12,3.33,3.33,0,0,1,12,15.33Z"></path></svg>
